docs/icons/wallpaper.svg

<svg xmlns="http://www.w3.org/2000/svg" xmlns:xlink="http://www.w3.org/1999/xlink" width="32" height="32" fill="none" xmlns:v="https://vecta.io/nano"><defs><linearGradient id="A" x1="100%" y1="100%" x2="0%" y2="0%"><stop offset="0" stop-color="#7bc7c0"/><stop offset="1" stop-color="#047a6c"/></linearGradient><path id="B" d="M0 0h22v22H0z"/><path id="C" d="M0 1.55a1.56 1.56 0 0 0 1.55 1.56c.86 0 1.56-.7 1.56-1.56A1.56 1.56 0 0 0 1.55 0 1.56 1.56 0 0 0 0 1.55z"/><path id="D" d="M0 .18a.18.18 0 0 0 .18.18C.25.37.31.33.34.27.37.22.37.15.34.09S.25 0 .18 0A.18.18 0 0 0 0 .18z"/></defs><g transform="matrix(1 0 0 1 0 0)"><path fill-rule="evenodd" fill="url(#A)" transform="matrix(1 0 0 1 0 0)" d="M0 32h32V0H0v32z"/><g transform="matrix(1 0 0 1 5 5)"><mask id="E" fill="#fff"><use xlink:href="#B"/></mask><g mask="url(#E)"><g fill-rule="evenodd"><path transform="matrix(1 0 0 1 0 0)" d="M0 11c0 6.08 4.92 11 11 11s11-4.92 11-11S17.08 0 11 0 0 4.92 0 11z" fill="#7fc9c3"/><path transform="matrix(1 0 0 1 2.369168 2.37716)" d="M8.83 17.24h.03.18l.05-.01c.05 0 .11 0 .16-.01h.08c.03-.01.07-.01.1-.01 3.87-.36 7-3.28 7.68-7.04.08-.33.08-.43.12-.94h0 .01 0c0-.03 0-.06.01-.1V9.1v-.02c.05-.64-.03-1.7-.25-2.52l-.01-.04C16.05 2.77 12.66 0 8.62 0 4.49 0 1.03 2.91.2 6.79.06 7.26.02 7.85 0 8.37v.25.02.25.21c0 .54.04.66.12.98h0c.65 3.81 3.8 6.77 7.7 7.13h.04c.05.01.1.01.15.01l.07.01a.53.53 0 0 1 .13.01h.09.12.14c.02.01.04.01.06.01h.01c.07 0 .13-.01.2-.01z" fill="#8ccec9"/><path transform="matrix(1 0 0 1 4.574195 4.579953)" d="M12.84 6.87h0V6.8v-.03h0v-.01a6.29 6.29 0 0 0-.18-1.87l-.01-.04C11.95 2.06 9.42 0 6.42 0 3.34 0 .77 2.17.15 5.06h0C.04 5.4.01 5.85 0 6.23v.19.01.19.16c0 .4.03.49.09.73h0c.49 2.83 2.83 5.04 5.74 5.3h.02c.04.01.08.01.12.01l.05.01h.1c.02 0 .04 0 .06.01h.09.1.05.01.14.02c.05 0 .1-.01.14-.01h.04c.04 0 .08 0 .12-.01h.06c.02 0 .05-.01.07-.01a6.44 6.44 0 0 0 5.72-5.24c.06-.24.06-.32.09-.7h0 .01z" fill="#98d3ce"/><path transform="matrix(1 0 0 1 6.987191 6.990758)" d="M8.02 4.29v-.04-.02-.01c.02-.3-.02-.79-.12-1.17v-.02C7.46 1.29 5.89 0 4.01 0A4.01 4.01 0 0 0 .09 3.16c-.06.22-.08.49-.09.73v.12.01.11.1c0 .25.02.31.06.46h0C.36 6.46 1.82 7.83 3.64 8h.01c.03 0 .05.01.08.01h.03.06c.01 0 .03 0 .04.01h.05.07.03 0 .09.02c.03 0 .05-.01.08-.01h.03.07L4.34 8h.05c1.79-.17 3.25-1.52 3.56-3.27.04-.15.04-.2.06-.44h0 .01z" fill="#a2d7d3"/><path transform="matrix(1 0 0 1 5.984816 1.921563)" d="M0 5.63a5.63 5.63 0 1 0 11.26 0A5.63 5.63 0 1 0 0 5.63z" fill="#fff"/><use xlink:href="#C" transform="matrix(1 0 0 1 6.465293 6.233863)" fill="#f9f9f9"/><path transform="matrix(1 0 0 1 .841328 14.460458)" d="M14.76.11c-1.35.1-2.63.64-3.97.77C7.95 1.16 5.12-.41 2.31.1 1.55.24.77.54 0 .76c1.66 3.98 5.58 6.78 10.16 6.78 4.48 0 8.34-2.69 10.06-6.54-1.81-.36-3.63-1.03-5.46-.89z" fill="#4cb5ab"/><use xlink:href="#C" transform="matrix(1 0 0 1 10.698145 6.353832)" fill="#f9f9f9"/><path transform="matrix(1 0 0 1 4.205695 16.325413)" d="M0 3.33C1.87 4.8 4.23 5.67 6.79 5.67c4 0 7.5-2.13 9.43-5.32-.87-.17-1.74-.3-2.62-.34-2.08-.1-4.12.49-6.11 1.13C3.15 2.51.01 2.48 0 2.48v.85z" fill="#00877a"/><path transform="matrix(1 0 0 1 1.569348 16.325413)" d="M8.66 1.14C6.67.5 4.63-.09 2.55.01 1.69.05.84.17 0 .34a10.98 10.98 0 0 0 9.43 5.33 10.99 10.99 0 0 0 7.63-3.07c-1.4-.08-4.99-.38-8.4-1.46z" fill="#26a599"/><path transform="matrix(1 0 0 1 3.828258 18.400355)" d="M7.59.22C6.05.02 4.48-.11 2.94.13 1.93.28.96.59 0 .94 1.93 2.6 4.43 3.6 7.17 3.6a10.97 10.97 0 0 0 6.95-2.47L7.59.22z" fill="#00786a"/><path transform="matrix(1 0 0 1 6.440771 5.548813)" d="M5.19 11.64l.03-.19h-.01c.03-.14.06-.32.06-.6-.01-.37.08-.72.16-1.07.01-.02.03-.05.05-.07.02.02.05.03.07.05l.25.35c.23.24.58.56.64.89.01.05.02.11.04.17 0 .58-.12 1.17-.12 1.17-.17.13-.29.3-.29.3h.4c.04-.22.1-.21.1-.21l.14-.61h.01c0-.02 0-.04.01-.06.12-.58.26-1.37.17-1.67.01-.01.01-.03.01-.04a.94.94 0 0 0 .12.22c.37.55.06 2.07.06 2.07-.17.13-.28.3-.28.3h.4c.03-.22.09-.21.09-.21s.55-2.12.3-2.43c-.43-.51-.41-1.18-.35-1.56l.07-.32h0l.21-.9c.06-.18-.07-.69-.11-.8-.1-.29-.29-.36-.48-.52-.27-.23-.59-.31-.92-.3-.31.01-.63-.01-.94-.03-.04 0-.08-.05-.1-.09-.03-.05-.05-.11-.05-.16-.01-.06-.01-.14.02-.17.09-.08.19-.17.3-.19.15-.03.27-.05.37-.2.12-.16.13-.35-.07-.4-.19-.05-.25-.23-.39-.32-.01-.01-.02-.07-.01-.09.05-.09.03-.15-.07-.22.05-.01.09-.01.12-.03.1-.04.21-.07.29-.14.13-.12.26-.26.36-.4.09-.13.16-.25.32-.29.05-.02.09-.06.12-.1l.57-.73c.03-.03.05-.08.07-.12.08-.21.03-.41-.07-.6-.02.05-.02.1-.02.14 0 .08.01.16-.01.24-.12.48-.49.66-.89.75-.09.01-.1-.04-.08-.11l.23-.62c.06-.16.13-.32.24-.44.31-.35.29-.72.12-1.11-.01-.03-.01-.05-.02-.08-.07.07-.06.13-.05.18 0 .15.03.29.02.44-.01.13-.05.25-.17.33-.07.04-.11.05-.15-.05L5.84.33C5.83.3 5.8.27 5.77.23c-.03.05-.03.08-.03.11l.02.48c.01.09.01.18-.1.23-.02.01-.03.06-.03.09.02.14-.08.21-.21.17-.04-.02-.11-.04-.16-.06-.33-.18-.55-.5-.85-.73 0 .05.01.08.04.11.24.31.49.63.82.85.1.07.2.13.33.11.12-.01.15.02.14.15-.04.42-.19.77-.61.95-.16.07-.29.18-.43.29-.16.12-.35.15-.54.17-.04 0-.1-.04-.12-.07-.01-.02.02-.09.05-.12.16-.14.23-.33.27-.53a.47.47 0 0 0-.08-.38c-.01.02-.01.04-.01.06.08.29-.16.63-.41.74-.11.04-.2.04-.31 0-.07-.03-.15-.05-.22-.05-.07-.01-.1-.04-.12-.1l-.14-.37c-.01.01-.05.02-.04.08l.07.24c.03.08.02.14-.08.13-.39-.04-.76-.12-1.09-.35a.57.57 0 0 1-.07-.08c-.08-.19-.18-.38-.15-.6 0-.05-.01-.1-.01-.15-.02-.05-.04-.04-.06-.05l-.05.53h-.03c-.26-.27-.44-.57-.41-.96l.1-.77.04-.24C1.28.11 1.26.1 1.25.1l-.14.33-.14.35C.95.81.89.84.87.83.67.76.51.66.5.42V.09C.49.02.45 0 .44 0 .42.06.39.16.39.22l.04.54c.02.11.02.33.05.44C.16 1.05.18.66.01.46 0 .6-.01.75.03.87c.09.26.24.47.47.62.04.03.07.07.1.1.05.06.09.13.14.18l.5.44c.49.47 1.07.76 1.74.83.2.02.22.06.18.25-.05.2-.07.4.05.59.01.02.02.06.01.09l-.15.51-.12.46-.2.88a.38.38 0 0 0 0 .15l.05.63.02.9c.01.16.03.32.06.48.03.21.08.42.25.58.16.15.23.34.22.58 0 .12.04.25.07.38.05.2.14.4.17.61.03.29.02.59.04.88 0 .1.02.19.04.29 0 .05.02.1.02.15 0 .06-.01.13-.01.19 0 .19-.03.62-.04.71 0 0-.16.15-.16.29h.3s.02-.15.09-.26c0 0 .03-.61.1-.93h-.01c.01-.02.01-.04.01-.06.02-.16.09-.32.09-.49.02-.38 0-.76 0-1.14 0-.08.02-.16.02-.24.01-.1.08-.37.46-.4.16-.03.33.07.34.22l.06.75c0 .12-.02.25-.04.36-.02.16-.09.31-.01.47.13.23.06.48.08.73l-.04.7s-.14.15-.14.29h.27s.01-.15.08-.26l.05-.73zm.532-8.9c.19.09.53.01.57-.18l-.57.18zm-.788.47l.62-.19c-.19-.1-.56.01-.62.19z" fill="#006064"/><path transform="matrix(1 0 0 1 14.175217 2.69341)" d="M.28 0A1.72 1.72 0 0 0 0 .93C0 1.85.75 2.6 1.67 2.6c.29 0 .57-.07.82-.22A5.64 5.64 0 0 0 .28 0z" fill="#f9f9f9"/></g><g transform="matrix(1 0 0 1 2.475048 1.323115)" fill-rule="evenodd" fill="#fff"><use xlink:href="#D" transform="matrix(1 0 0 1 1.380113 2.985984)"/><path transform="matrix(1 0 0 1 17.566844 7.409166)" d="M0 .18a.18.18 0 0 0 .18.18.18.18 0 0 0 .18-.18A.18.18 0 0 0 .18 0 .18.18 0 0 0 0 .18z"/><use xlink:href="#D" transform="matrix(1 0 0 1 0 6.371664)"/><use xlink:href="#D" transform="matrix(1 0 0 1 15.903035 2.773719)"/><use xlink:href="#D" transform="matrix(1 0 0 1 15.538488 6.107063)"/><use xlink:href="#D" transform="matrix(1 0 0 1 11.892418 .078246)"/><use xlink:href="#D" transform="matrix(1 0 0 1 5.894195 0)"/><use xlink:href="#D" transform="matrix(1 0 0 1 2.205113 6.107063)"/></g></g></g></g></svg>

<svg xmlns="http://www.w3.org/2000/svg" xmlns:xlink="http://www.w3.org/1999/xlink" width="32" height="32" viewBox="0 0 32 32" fill="none"><defs><linearGradient id="linear_0" x1="100%" y1="100%" x2="0%" y2="0%" gradientUnits="objectBoundingBox"><stop offset="0" stop-color="#7BC7C0" stop-opacity="1" /><stop offset="1" stop-color="#047A6C" stop-opacity="1" /></linearGradient><rect id="path_0" x="0" y="0" width="22" height="22" /></defs><g opacity="1" transform="translate(0 0)  rotate(0 16 16)"><path id="矩形 1" fill-rule="evenodd" fill="url(#linear_0)" transform="translate(0 0)  rotate(0 16 16)" opacity="1" d="M0,32L32,32L32,0L0,0L0,32Z " /><g opacity="1" transform="translate(5 5)  rotate(0 11 11)"><mask id="bg-mask-0" fill="white"><use xlink:href="#path_0"></use></mask><g mask="url(#bg-mask-0)" ><path id="路径 1" fill-rule="evenodd" style="fill:#7FC9C3" transform="translate(0 0)  rotate(0 11 11)" opacity="1" d="M0,11C0,17.08 4.92,22 11,22C17.08,22 22,17.08 22,11C22,4.92 17.08,0 11,0C4.92,0 0,4.92 0,11Z " /><path id="路径 2" fill-rule="evenodd" style="fill:#8CCEC9" transform="translate(2.3691679687500002 2.377160156249999)  rotate(0 8.630826989305788 8.62275390625)" opacity="1" d="M8.83,17.24L8.86,17.24C8.92,17.24 8.98,17.24 9.04,17.24L9.09,17.23C9.14,17.23 9.2,17.23 9.25,17.22L9.33,17.22C9.36,17.21 9.4,17.21 9.43,17.21C13.3,16.85 16.43,13.93 17.11,10.17C17.19,9.84 17.19,9.74 17.23,9.23L17.23,9.23L17.24,9.23L17.24,9.23C17.24,9.2 17.24,9.17 17.25,9.13L17.25,9.1L17.25,9.08C17.3,8.44 17.22,7.38 17,6.56L16.99,6.52C16.05,2.77 12.66,0 8.62,0C4.49,0 1.03,2.91 0.2,6.79C0.06,7.26 0.02,7.85 0,8.37C0,8.45 0,8.54 0,8.62L0,8.64C0,8.73 0,8.81 0,8.89L0,9.1C0,9.64 0.04,9.76 0.12,10.08L0.12,10.08C0.77,13.89 3.92,16.85 7.82,17.21L7.86,17.21C7.91,17.22 7.96,17.22 8.01,17.22L8.08,17.23C8.13,17.23 8.17,17.23 8.21,17.24C8.24,17.24 8.27,17.24 8.3,17.24C8.34,17.24 8.38,17.24 8.42,17.24C8.46,17.24 8.51,17.24 8.56,17.24C8.58,17.25 8.6,17.25 8.62,17.25L8.63,17.25C8.7,17.25 8.76,17.24 8.83,17.24Z " /><path id="路径 3" fill-rule="evenodd" style="fill:#98D3CE" transform="translate(4.5741953125000006 4.579953124999999)  rotate(0 6.425846806724147 6.419917968749999)" opacity="1" d="M12.84,6.87L12.84,6.87C12.84,6.85 12.84,6.82 12.84,6.8L12.84,6.77L12.84,6.77L12.84,6.76C12.88,6.28 12.82,5.49 12.66,4.89L12.65,4.85C11.95,2.06 9.42,0 6.42,0C3.34,0 0.77,2.17 0.15,5.06L0.15,5.06C0.04,5.4 0.01,5.85 0,6.23C0,6.29 0,6.36 0,6.42L0,6.43C0,6.5 0,6.56 0,6.62L0,6.78C0,7.18 0.03,7.27 0.09,7.51L0.09,7.51C0.58,10.34 2.92,12.55 5.83,12.81L5.85,12.81C5.89,12.82 5.93,12.82 5.97,12.82L6.02,12.83C6.05,12.83 6.08,12.83 6.12,12.83C6.14,12.83 6.16,12.83 6.18,12.84C6.21,12.84 6.24,12.84 6.27,12.84C6.3,12.84 6.34,12.84 6.37,12.84C6.39,12.84 6.4,12.84 6.42,12.84L6.43,12.84C6.48,12.84 6.52,12.84 6.57,12.84L6.59,12.84C6.64,12.84 6.69,12.83 6.73,12.83L6.77,12.83C6.81,12.83 6.85,12.83 6.89,12.82L6.95,12.82C6.97,12.82 7,12.81 7.02,12.81C9.9,12.54 12.23,10.37 12.74,7.57C12.8,7.33 12.8,7.25 12.83,6.87L12.83,6.87L12.84,6.87Z " /><path id="路径 4" fill-rule="evenodd" style="fill:#A2D7D3" transform="translate(6.987191406250002 6.990757812499996)  rotate(0 4.012870731978829 4.009092920041143)" opacity="1" d="M8.02,4.29C8.02,4.28 8.02,4.26 8.02,4.25L8.02,4.23L8.02,4.22C8.04,3.92 8,3.43 7.9,3.05L7.9,3.03C7.46,1.29 5.89,0 4.01,0C2.09,0 0.48,1.35 0.09,3.16C0.03,3.38 0.01,3.65 0,3.89C0,3.93 0,3.97 0,4.01L0,4.02C0,4.06 0,4.1 0,4.13L0,4.23C0,4.48 0.02,4.54 0.06,4.69L0.06,4.69C0.36,6.46 1.82,7.83 3.64,8L3.65,8C3.68,8 3.7,8.01 3.73,8.01L3.76,8.01C3.78,8.01 3.8,8.01 3.82,8.01C3.83,8.01 3.85,8.01 3.86,8.02C3.88,8.02 3.9,8.02 3.91,8.02C3.94,8.02 3.96,8.02 3.98,8.02C3.99,8.02 4,8.02 4.01,8.02L4.01,8.02C4.04,8.02 4.07,8.02 4.1,8.02L4.12,8.02C4.15,8.02 4.17,8.01 4.2,8.01L4.23,8.01C4.25,8.01 4.28,8.01 4.3,8.01L4.34,8C4.35,8 4.37,8 4.39,8C6.18,7.83 7.64,6.48 7.95,4.73C7.99,4.58 7.99,4.53 8.01,4.29L8.01,4.29L8.02,4.29Z " /><path id="路径 5" fill-rule="evenodd" style="fill:#FFFFFF" transform="translate(5.984816406249998 1.9215624999999998)  rotate(0 5.628648437499999 5.628648437500001)" opacity="1" d="M0,5.63C0,8.74 2.52,11.26 5.63,11.26C8.74,11.26 11.26,8.74 11.26,5.63C11.26,2.52 8.74,0 5.63,0C2.52,0 0,2.52 0,5.63Z " /><path id="路径 6" fill-rule="evenodd" style="fill:#F9F9F9" transform="translate(6.465292966758849 6.2338632812500006)  rotate(0 1.5531914072455757 1.5531914062500003)" opacity="1" d="M0,1.55C0,2.41 0.7,3.11 1.55,3.11C2.41,3.11 3.11,2.41 3.11,1.55C3.11,0.7 2.41,0 1.55,0C0.7,0 0,0.7 0,1.55Z " /><path id="路径 7" fill-rule="evenodd" style="fill:#4CB5AB" transform="translate(0.8413281250000018 14.460457822827648)  rotate(0 10.107539062499999 3.769771088586176)" opacity="1" d="M14.76,0.11C13.41,0.21 12.13,0.75 10.79,0.88C7.95,1.16 5.12,-0.41 2.31,0.1C1.55,0.24 0.77,0.54 0,0.76C1.66,4.74 5.58,7.54 10.16,7.54C14.64,7.54 18.5,4.85 20.22,1C18.41,0.64 16.59,-0.03 14.76,0.11Z " /><path id="路径 8" fill-rule="evenodd" style="fill:#F9F9F9" transform="translate(10.698144529258848 6.3538320312500005)  rotate(0 1.5531914072455768 1.5531914062499996)" opacity="1" d="M0,1.55C0,2.41 0.7,3.11 1.55,3.11C2.41,3.11 3.11,2.41 3.11,1.55C3.11,0.7 2.41,0 1.55,0C0.7,0 0,0.7 0,1.55Z " /><path id="路径 9" fill-rule="evenodd" style="fill:#00877A" transform="translate(4.2056953125000005 16.325413287200583)  rotate(0 8.108568359375003 2.8372933563997087)" opacity="1" d="M0,3.33C1.87,4.8 4.23,5.67 6.79,5.67C10.79,5.67 14.29,3.54 16.22,0.35C15.35,0.18 14.48,0.05 13.6,0.01C11.52,-0.09 9.48,0.5 7.49,1.14C3.15,2.51 0.01,2.48 0,2.48L0,3.33Z " /><path id="路径 10" fill-rule="evenodd" style="fill:#26A599" transform="translate(1.5693476562499986 16.325413287200583)  rotate(0 8.53062890625 2.8372933563997087)" opacity="1" d="M8.66,1.14C6.67,0.5 4.63,-0.09 2.55,0.01C1.69,0.05 0.84,0.17 0,0.34C1.92,3.54 5.43,5.67 9.43,5.67C12.39,5.67 15.08,4.5 17.06,2.6C15.66,2.52 12.07,2.22 8.66,1.14Z " /><path id="路径 11" fill-rule="evenodd" style="fill:#00786A" transform="translate(3.8282578124999986 18.400354606453234)  rotate(0 7.059744140625 1.7998226967733832)" opacity="1" d="M7.59,0.22C6.05,0.02 4.48,-0.11 2.94,0.13C1.93,0.28 0.96,0.59 0,0.94C1.93,2.6 4.43,3.6 7.17,3.6C9.81,3.6 12.23,2.67 14.12,1.13C11.93,0.85 9.73,0.49 7.59,0.22Z " /><path id="分组 1" fill-rule="evenodd" style="fill:#006064" transform="translate(6.440770939334033 5.5488125000000075)  rotate(0 3.8319844832994634 6.31791015625)" opacity="1" d="M5.19 11.64C5.2 11.57 5.21 11.5 5.22 11.45L5.21 11.45C5.24 11.31 5.27 11.13 5.27 10.85C5.26 10.48 5.35 10.13 5.43 9.78C5.44 9.76 5.46 9.73 5.48 9.71C5.5 9.73 5.53 9.74 5.55 9.76C5.63 9.88 5.71 10 5.8 10.11C6.03 10.35 6.38 10.67 6.44 11C6.45 11.05 6.46 11.11 6.48 11.17C6.48 11.75 6.36 12.34 6.36 12.34C6.19 12.47 6.07 12.64 6.07 12.64L6.47 12.64C6.51 12.42 6.57 12.43 6.57 12.43C6.57 12.43 6.64 12.17 6.71 11.82L6.72 11.82C6.72 11.8 6.72 11.78 6.73 11.76C6.85 11.18 6.99 10.39 6.9 10.09C6.91 10.08 6.91 10.06 6.91 10.05C6.94 10.13 6.98 10.2 7.03 10.27C7.4 10.82 7.09 12.34 7.09 12.34C6.92 12.47 6.81 12.64 6.81 12.64L7.21 12.64C7.24 12.42 7.3 12.43 7.3 12.43C7.3 12.43 7.85 10.31 7.6 10C7.17 9.49 7.19 8.82 7.25 8.44C7.27 8.33 7.3 8.23 7.32 8.12L7.32 8.12C7.38 7.82 7.44 7.52 7.53 7.22C7.59 7.04 7.46 6.53 7.42 6.42C7.32 6.13 7.13 6.06 6.94 5.9C6.67 5.67 6.35 5.59 6.02 5.6C5.71 5.61 5.39 5.59 5.08 5.57C5.04 5.57 5 5.52 4.98 5.48C4.95 5.43 4.93 5.37 4.93 5.32C4.92 5.26 4.92 5.18 4.95 5.15C5.04 5.07 5.14 4.98 5.25 4.96C5.4 4.93 5.52 4.91 5.62 4.76C5.74 4.6 5.75 4.41 5.55 4.36C5.36 4.31 5.3 4.13 5.16 4.04C5.15 4.03 5.14 3.97 5.15 3.95C5.2 3.86 5.18 3.8 5.08 3.73C5.13 3.72 5.17 3.72 5.2 3.7C5.3 3.66 5.41 3.63 5.49 3.56C5.62 3.44 5.75 3.3 5.85 3.16C5.94 3.03 6.01 2.91 6.17 2.87C6.22 2.85 6.26 2.81 6.29 2.77C6.48 2.53 6.67 2.29 6.86 2.04C6.89 2.01 6.91 1.96 6.93 1.92C7.01 1.71 6.96 1.51 6.86 1.32C6.84 1.37 6.84 1.42 6.84 1.46C6.84 1.54 6.85 1.62 6.83 1.7C6.71 2.18 6.34 2.36 5.94 2.45C5.85 2.46 5.84 2.41 5.86 2.34C5.94 2.13 6 1.92 6.09 1.72C6.15 1.56 6.22 1.4 6.33 1.28C6.64 0.93 6.62 0.56 6.45 0.17C6.44 0.14 6.44 0.12 6.43 0.09C6.36 0.16 6.37 0.22 6.38 0.27C6.38 0.42 6.41 0.56 6.4 0.71C6.39 0.84 6.35 0.96 6.23 1.04C6.16 1.08 6.12 1.09 6.08 0.99C6.01 0.77 5.93 0.55 5.84 0.33C5.83 0.3 5.8 0.27 5.77 0.23C5.74 0.28 5.74 0.31 5.74 0.34C5.75 0.5 5.76 0.66 5.76 0.82C5.77 0.91 5.77 1 5.66 1.05C5.64 1.06 5.63 1.11 5.63 1.14C5.65 1.28 5.55 1.35 5.42 1.31C5.38 1.29 5.31 1.27 5.26 1.25C4.93 1.07 4.71 0.75 4.41 0.52C4.41 0.57 4.42 0.6 4.45 0.63C4.69 0.94 4.94 1.26 5.27 1.48C5.37 1.55 5.47 1.61 5.6 1.59C5.72 1.58 5.75 1.61 5.74 1.74C5.7 2.16 5.55 2.51 5.13 2.69C4.97 2.76 4.84 2.87 4.7 2.98C4.54 3.1 4.35 3.13 4.16 3.15C4.12 3.15 4.06 3.11 4.04 3.08C4.03 3.06 4.06 2.99 4.09 2.96C4.25 2.82 4.32 2.63 4.36 2.43C4.39 2.29 4.36 2.17 4.28 2.05C4.27 2.07 4.27 2.09 4.27 2.11C4.35 2.4 4.11 2.74 3.86 2.85C3.75 2.89 3.66 2.89 3.55 2.85C3.48 2.82 3.4 2.8 3.33 2.8C3.26 2.79 3.23 2.76 3.21 2.7C3.17 2.6 3.12 2.43 3.07 2.33C3.06 2.34 3.02 2.35 3.03 2.41C3.05 2.49 3.07 2.57 3.1 2.65C3.13 2.73 3.12 2.79 3.02 2.78C2.63 2.74 2.26 2.66 1.93 2.43C1.91 2.41 1.88 2.38 1.86 2.35C1.78 2.16 1.68 1.97 1.71 1.75C1.71 1.7 1.7 1.65 1.7 1.6C1.68 1.55 1.66 1.56 1.64 1.55C1.63 1.72 1.61 1.92 1.59 2.08C1.58 2.08 1.57 2.08 1.56 2.08C1.3 1.81 1.12 1.51 1.15 1.12C1.17 0.87 1.21 0.61 1.25 0.35C1.26 0.27 1.28 0.19 1.29 0.11C1.28 0.11 1.26 0.1 1.25 0.1C1.2 0.21 1.15 0.32 1.11 0.43C1.06 0.55 1.02 0.66 0.97 0.78C0.95 0.81 0.89 0.84 0.87 0.83C0.67 0.76 0.51 0.66 0.5 0.42C0.5 0.3 0.51 0.21 0.5 0.09C0.49 0.02 0.45 0 0.44 0C0.42 0.06 0.39 0.16 0.39 0.22C0.4 0.4 0.41 0.58 0.43 0.76C0.45 0.87 0.45 1.09 0.48 1.2C0.16 1.05 0.18 0.66 0.01 0.46C0 0.6 -0.01 0.75 0.03 0.87C0.12 1.13 0.27 1.34 0.5 1.49C0.54 1.52 0.57 1.56 0.6 1.59C0.65 1.65 0.69 1.72 0.74 1.77C0.91 1.92 1.08 2.05 1.24 2.21C1.73 2.68 2.31 2.97 2.98 3.04C3.18 3.06 3.2 3.1 3.16 3.29C3.11 3.49 3.09 3.69 3.21 3.88C3.22 3.9 3.23 3.94 3.22 3.97C3.17 4.14 3.12 4.31 3.07 4.48C3.03 4.63 2.98 4.78 2.95 4.94C2.88 5.23 2.82 5.53 2.75 5.82C2.74 5.87 2.74 5.92 2.75 5.97C2.76 6.18 2.79 6.39 2.8 6.6C2.81 6.9 2.81 7.2 2.82 7.5C2.83 7.66 2.85 7.82 2.88 7.98C2.91 8.19 2.96 8.4 3.13 8.56C3.29 8.71 3.36 8.9 3.35 9.14C3.35 9.26 3.39 9.39 3.42 9.52C3.47 9.72 3.56 9.92 3.59 10.13C3.62 10.42 3.61 10.72 3.63 11.01C3.63 11.11 3.65 11.2 3.67 11.3C3.67 11.35 3.69 11.4 3.69 11.45C3.69 11.51 3.68 11.58 3.68 11.64C3.68 11.83 3.65 12.26 3.64 12.35C3.64 12.35 3.48 12.5 3.48 12.64L3.78 12.64C3.78 12.64 3.8 12.49 3.87 12.38C3.87 12.38 3.9 11.77 3.97 11.45L3.96 11.45C3.97 11.43 3.97 11.41 3.97 11.39C3.99 11.23 4.06 11.07 4.06 10.9C4.08 10.52 4.06 10.14 4.06 9.76C4.06 9.68 4.08 9.6 4.08 9.52C4.09 9.42 4.16 9.15 4.54 9.12C4.7 9.09 4.87 9.19 4.88 9.34C4.91 9.59 4.93 9.84 4.94 10.09C4.94 10.21 4.92 10.34 4.9 10.45C4.88 10.61 4.81 10.76 4.89 10.92C5.02 11.15 4.95 11.4 4.97 11.65C4.96 11.84 4.94 12.26 4.93 12.35C4.93 12.35 4.79 12.5 4.79 12.64L5.06 12.64C5.06 12.64 5.07 12.49 5.14 12.38C5.14 12.38 5.15 11.97 5.19 11.65C5.19 11.65 5.2 11.65 5.2 11.64C5.2 11.64 5.19 11.64 5.19 11.64Z M5.72244 2.74034C5.91244 2.83034 6.25244 2.75034 6.29244 2.56034C6.10244 2.62034 5.91244 2.68034 5.72244 2.74034Z M4.9343 3.20992L5.5543 3.01992C5.3643 2.91992 4.9943 3.02992 4.9343 3.20992Z " /><path id="路径 15" fill-rule="evenodd" style="fill:#F9F9F9" transform="translate(14.175216983784564 2.693410156250039)  rotate(0 1.2472762737327199 1.3000418424942148)" opacity="1" d="M0.28,0C0.1,0.28 0,0.6 0,0.93C0,1.85 0.75,2.6 1.67,2.6C1.96,2.6 2.24,2.53 2.49,2.38C2.01,1.39 1.23,0.56 0.28,0Z " /><g opacity="1" transform="translate(2.4750484996317974 1.3231151419393195)  rotate(0 8.9657169611216 3.88687797590534)"><path id="路径 16" fill-rule="evenodd" style="fill:#FFFFFF" transform="translate(1.3801132812500017 2.985984375)  rotate(0 0.18227343750000016 0.1822735299356801)" opacity="1" d="M0,0.18C0,0.28 0.08,0.36 0.18,0.36C0.25,0.37 0.31,0.33 0.34,0.27C0.37,0.22 0.37,0.15 0.34,0.09C0.31,0.03 0.25,0 0.18,0C0.08,0 0,0.08 0,0.18Z " /><path id="路径 17" fill-rule="evenodd" style="fill:#FFFFFF" transform="translate(17.5668440784932 7.4091661080606785)  rotate(0 0.18229492187500032 0.1822949218750003)" opacity="1" d="M0,0.18C0,0.28 0.08,0.36 0.18,0.36C0.28,0.36 0.36,0.28 0.36,0.18C0.36,0.08 0.28,0 0.18,0C0.08,0 0,0.08 0,0.18Z " /><path id="路径 18" fill-rule="evenodd" style="fill:#FFFFFF" transform="translate(0 6.371664062499997)  rotate(0 0.18227343750000002 0.1822735299356804)" opacity="1" d="M0,0.18C0,0.28 0.08,0.36 0.18,0.36C0.25,0.37 0.31,0.33 0.34,0.27C0.37,0.22 0.37,0.15 0.34,0.09C0.31,0.03 0.25,0 0.18,0C0.08,0 0,0.08 0,0.18Z " /><path id="路径 19" fill-rule="evenodd" style="fill:#FFFFFF" transform="translate(15.903035156250002 2.7737187499999996)  rotate(0 0.18227343749999958 0.1822735299356804)" opacity="1" d="M0,0.18C0,0.28 0.08,0.36 0.18,0.36C0.25,0.37 0.31,0.33 0.34,0.27C0.37,0.22 0.37,0.15 0.34,0.09C0.31,0.03 0.25,0 0.18,0C0.08,0 0,0.08 0,0.18Z " /><path id="路径 20" fill-rule="evenodd" style="fill:#FFFFFF" transform="translate(15.538488281250004 6.1070625)  rotate(0 0.18227343749999958 0.18227352993568102)" opacity="1" d="M0,0.18C0,0.28 0.08,0.36 0.18,0.36C0.25,0.37 0.31,0.33 0.34,0.27C0.37,0.22 0.37,0.15 0.34,0.09C0.31,0.03 0.25,0 0.18,0C0.08,0 0,0.08 0,0.18Z " /><path id="路径 21" fill-rule="evenodd" style="fill:#FFFFFF" transform="translate(11.892417968750003 0.0782460937499998)  rotate(0 0.1822734375000057 0.18227352993568058)" opacity="1" d="M0,0.18C0,0.28 0.08,0.36 0.18,0.36C0.25,0.37 0.31,0.33 0.34,0.27C0.37,0.22 0.37,0.15 0.34,0.09C0.31,0.03 0.25,0 0.18,0C0.08,0 0,0.08 0,0.18Z " /><path id="路径 22" fill-rule="evenodd" style="fill:#FFFFFF" transform="translate(5.894195312500009 0)  rotate(0 0.18227343749999958 0.1822735299356804)" opacity="1" d="M0,0.18C0,0.28 0.08,0.36 0.18,0.36C0.25,0.37 0.31,0.33 0.34,0.27C0.37,0.22 0.37,0.15 0.34,0.09C0.31,0.03 0.25,0 0.18,0C0.08,0 0,0.08 0,0.18Z " /><path id="路径 23" fill-rule="evenodd" style="fill:#FFFFFF" transform="translate(2.205113281250002 6.1070625)  rotate(0 0.18227343749999989 0.18227352993568102)" opacity="1" d="M0,0.18C0,0.28 0.08,0.36 0.18,0.36C0.25,0.37 0.31,0.33 0.34,0.27C0.37,0.22 0.37,0.15 0.34,0.09C0.31,0.03 0.25,0 0.18,0C0.08,0 0,0.08 0,0.18Z " /></g></g></g></g></svg>
